X: 7
T:Banish Misfortune
M:6/8
L:1/8
C:Taditional
R:Jig
K:D
de|"D"fed "C"=cAG|"D"A2 d "C"=cAG|"D"FDD DED|FEF "C"GFG|\
"Am"A2 d =cAG|!
AGA "C"=cde|
"D"{fg}fed "Am"=cAG|"D"Adc d2e:||:"D"f2d dcd|f2g agf|!
"Am"e2=c cBc|e2f gfe|
"D"f2g agf|"Am"e2f {f}gfe|"D"fed "C"=cAG|!
"D"Ad^c d2e:|"D"f2g"C"e2 f|"D"d2e"C"=c2d|
"D"ABA "C"GAG|"D"FGE FED|!
"C"=c3 {cd}cAG|AGA =cde|"D"fed "C"=cAG|[1"D"Adc dde:|[2"D"Adc d3|]
